svg/u1f947.svg

<svg viewBox="0 0 128 128" xmlns="http://www.w3.org/2000/svg">
  <path d="M69.09,4.24c-1.08,0.96-9.48,17.63-9.48,17.63l-6.25,25.21l24.32-2.23c0,0,20.23-37.62,20.64-38.49 c0.73-1.58,1.12-2.23-1.67-2.23C93.86,4.12,70.1,3.34,69.09,4.24z" fill="#176CC7"/>
  <path d="M81.68,43.29c-1.21-0.65-36.85-1.21-37.69,0c-0.76,1.1-0.65,6.13-0.28,6.78 c0.37,0.65,12.35,6.22,12.35,6.22l-0.01,2.03c0,0,0.66,1.59,7.34,1.59s7.37-1.35,7.37-1.35l0.06-2.05c0,0,10.49-5.24,11.04-5.7 C82.42,50.34,82.89,43.94,81.68,43.29z M70.7,51.62c0,0-0.03-1.4-0.72-1.75c-0.69-0.35-11.8-0.29-12.74-0.24 c-0.94,0.05-0.94,1.73-0.94,1.73l-7.6-3.7v-0.74l28.3,0.2l0.05,0.84L70.7,51.62z" fill="#FCC417"/>
  <path d="M59.26,51.17c-0.94,0-1.48,0.98-1.48,2.67c0,1.58,0.54,2.91,1.73,2.81c0.98-0.08,1.32-1.58,1.23-2.91 C60.65,52.16,60.45,51.17,59.26,51.17z" fill="#FDFFFF"/>
  <path d="M28.98,90.72c0,23.96,21.66,34.63,36.06,34.12c15.88-0.57,34.9-12.95,33.75-35.81 C97.7,67.37,79.48,57.1,63.7,57.21C45.36,57.34,28.98,69.79,28.98,90.72z" fill="#FCC417"/>
  <path d="M64.53,120.67c-0.25,0-0.51,0-0.76-0.01c-7.5-0.25-14.91-3.41-20.33-8.66 c-5.8-5.62-8.98-13.22-8.94-21.39c0.09-19.95,17.53-29.2,29.36-29.2c0.03,0,0.07,0,0.1,0h0c16.03,0.07,29.19,12.53,29.56,29.42 c0.16,7.52-2.92,15.41-8.96,21.35C78.92,117.71,71.44,120.67,64.53,120.67z M63.84,64.73c-10.61,0-26.3,8.68-26.34,25.88 c-0.03,12.86,9.93,26.08,26.52,26.64c6.32,0.2,12.83-2.22,18.09-7.39c5.46-5.37,8.53-12.29,8.42-18.99 c-0.24-14.53-12.12-26.09-26.54-26.15C63.95,64.72,63.87,64.73,63.84,64.73z" fill="#FA912C"/>
  <path d="M57.82,60.61c-0.69-0.95-8.51-0.77-15.9,6.45c-7.13,6.97-7.9,13.54-6.53,13.92 c1.55,0.43,3.44-6.53,9.97-12.38C51.36,63.24,59.2,62.5,57.82,60.61z" fill="#FEFFFA"/>
  <path d="M88.07,86.48c-2.41,0.34,0.09,7.56-5.5,15.64c-4.85,7.01-10.35,9.55-9.71,11.09 c0.86,2.06,9.67-3.07,13.75-11.43C90.31,94.21,89.87,86.22,88.07,86.48z" fill="#FEFFFA"/>
  <path d="M55.85,77.02c-0.52,0.77-0.05,7.52,0.26,7.82c0.6,0.6,5.16-1.55,5.16-1.55l-0.17,18.05 c0,0-3.35-0.04-3.7,0.09c-0.69,0.26-0.6,7.22-0.09,7.56s14.18,0.52,14.7-0.17c0.52-0.69,0.39-6.78,0.15-7.06 c-0.43-0.52-3.7-0.31-3.7-0.31s0.28-26.58,0.19-27.43s-1.03-1.38-2.15-1.12S56.18,76.52,55.85,77.02z" fill="#FA912C"/>
  <path d="M25.51,3.72C24.88,4.3,48.97,47.2,48.97,47.2s4.04,0.52,13.06,0.6s13.49-0.52,13.49-0.52 S56.79,4.15,55.67,3.72C55.12,3.5,47.7,3.42,40.45,3.34C33.19,3.25,26.11,3.16,25.51,3.72z" fill="#2E9DF4"/>
</svg>

<svg viewBox="0 0 128 128" xmlns="http://www.w3.org/2000/svg">
  <defs/>
  <path d="M69.09,4.24 C68.01,5.2 59.61,21.87 59.61,21.87 L53.36,47.08 L77.68,44.85 C77.68,44.85 97.91,7.23 98.32,6.36 C99.05,4.78 99.44,4.13 96.65,4.13 C93.86,4.12 70.1,3.34 69.09,4.24 Z" fill="#176CC7"/>
  <path d="M81.68,43.29 C80.47,42.64 44.83,42.08 43.99,43.29 C43.23,44.39 43.34,49.42 43.71,50.07 C44.08,50.72 56.06,56.29 56.06,56.29 L56.05,58.32 C56.05,58.32 56.71,59.91 63.39,59.91 C70.07,59.91 70.76,58.56 70.76,58.56 L70.82,56.51 C70.82,56.51 81.31,51.27 81.86,50.81 C82.42,50.34 82.89,43.94 81.68,43.29 Z M70.7,51.62 C70.7,51.62 70.67,50.22 69.98,49.87 C69.29,49.52 58.18,49.58 57.24,49.63 C56.3,49.68 56.3,51.36 56.3,51.36 L48.7,47.66 L48.7,46.92 L77,47.12 L77.05,47.96 L70.7,51.62 Z" fill="#FCC417"/>
  <path d="M59.26,51.17 C58.32,51.17 57.78,52.15 57.78,53.84 C57.78,55.42 58.32,56.75 59.51,56.65 C60.49,56.57 60.83,55.07 60.74,53.74 C60.65,52.16 60.45,51.17 59.26,51.17 Z" fill="#FDFFFF"/>
  <path d="M28.98,90.72 C28.98,114.68 50.64,125.35 65.04,124.84 C80.92,124.27 99.94,111.89 98.79,89.03 C97.7,67.37 79.48,57.1 63.7,57.21 C45.36,57.34 28.98,69.79 28.98,90.72 Z" fill="#FCC417"/>
  <path d="M64.53,120.67 C64.28,120.67 64.02,120.67 63.77,120.66 C56.27,120.41 48.86,117.25 43.44,112 C37.64,106.38 34.46,98.78 34.5,90.61 C34.59,70.66 52.03,61.41 63.86,61.41 C63.89,61.41 63.93,61.41 63.96,61.41 L63.96,61.41 C79.99,61.48 93.15,73.94 93.52,90.83 C93.68,98.35 90.6,106.24 84.56,112.18 C78.92,117.71 71.44,120.67 64.53,120.67 Z M63.84,64.73 C53.23,64.73 37.54,73.41 37.5,90.61 C37.47,103.47 47.43,116.69 64.02,117.25 C70.34,117.45 76.85,115.03 82.11,109.86 C87.57,104.49 90.64,97.57 90.53,90.87 C90.29,76.34 78.41,64.78 63.99,64.72 C63.95,64.72 63.87,64.73 63.84,64.73 Z" fill="#FA912C"/>
  <path d="M57.82,60.61 C57.13,59.66 49.31,59.84 41.92,67.06 C34.79,74.03 34.02,80.6 35.39,80.98 C36.94,81.41 38.83,74.45 45.36,68.6 C51.36,63.24 59.2,62.5 57.82,60.61 Z" fill="#FEFFFA"/>
  <path d="M88.07,86.48 C85.66,86.82 88.16,94.04 82.57,102.12 C77.72,109.13 72.22,111.67 72.86,113.21 C73.72,115.27 82.53,110.14 86.61,101.78 C90.31,94.21 89.87,86.22 88.07,86.48 Z" fill="#FEFFFA"/>
  <path d="M55.85,77.02 C55.33,77.79 55.8,84.54 56.11,84.84 C56.71,85.44 61.27,83.29 61.27,83.29 L61.1,101.34 C61.1,101.34 57.75,101.3 57.4,101.43 C56.71,101.69 56.8,108.65 57.31,108.99 C57.82,109.33 71.49,109.51 72.01,108.82 C72.53,108.13 72.4,102.04 72.16,101.76 C71.73,101.24 68.46,101.45 68.46,101.45 C68.46,101.45 68.74,74.87 68.65,74.02 C68.56,73.17 67.62,72.64 66.5,72.9 C65.38,73.16 56.18,76.52 55.85,77.02 Z" fill="#FA912C"/>
  <path d="M25.51,3.72 C24.88,4.3 48.97,47.2 48.97,47.2 C48.97,47.2 53.01,47.72 62.03,47.8 C71.05,47.88 75.52,47.28 75.52,47.28 C75.52,47.28 56.79,4.15 55.67,3.72 C55.12,3.5 47.7,3.42 40.45,3.34 C33.19,3.25 26.11,3.16 25.51,3.72 Z" fill="#2E9DF4"/>
</svg>
